assets/svg/1F483.svg

<svg xmlns="http://www.w3.org/2000/svg" viewBox="0 0 64 64" enable-background="new 0 0 64 64"><g transform="translate(4)" fill-rule="evenodd"><path d="m40.4 6.04c-1.229-1.562-6.45-1.396-5.286 1.881.164.481 2.252-3.01 3.706.15.495 1.075-.343 3.943-8.668.335-3.949-1.711-7.591-4.077-11.445-6-4.317-2.158-9.14-3.718-13.761-1.612-1.829.83-3.912 2.729-4.379 4.672-2.685 11.132 4.855 11.01 7.08 11.136 1.58.094 3.144-.008 4.725-.08 2.886-.136 5.39.688 8.104 1.518 5.602 1.719 27.301-2.649 19.927-12" fill="#704c25"/><path d="m40.4 6.04c-.357-.455-1.053-.756-1.829-.884.157.132.333.244.467.397 6.576 7.651-10.422 10.502-14.425 10.269-6.174-.361-21.247-1.59-20.816-10.572.125-2.639 1.693-4.328 3.844-5.254-.902.156-1.804.391-2.695.798-1.829.83-3.912 2.729-4.379 4.672-2.685 11.132 4.855 11.01 7.08 11.136 1.58.094 3.144-.008 4.725-.08 2.886-.136 5.39.688 8.104 1.518 5.602 1.719 27.301-2.649 19.927-12" fill="#5c3c1d"/><g fill="#d9c089"><path d="m23.738 32.378c.455-.148 1.865.614 2.39.554.289-.034 2.455.369 0-2.02-5.812-5.681-8.807-9.977-9.626-13.232-.931-2.114-4.45-.108-5.637-1.993 2.196-2.344 3.541-11.567-.8-10.482-9.347-1.587-5.39 7.392-3.02 9.989-12.44 3.502 3.78 20.665 11.467 19.19.736-3.03-3.173-3.03-4.913-4.428-3.542-2.85-3.193-5.982-5.056-8.77 8.344-.231 9.742 6.826 15.197 11.194"/><path d="m22.671 42.628c-2.062.758-2.769 5.317-.063 10.774 2.672 5.394 6.418-13.11.063-10.774"/></g><path d="m54.713 23.849c-1.49-2.689-5.122-3.335-8.08-2.473-4.255 1.241-4.504 4.269-.7 6.279 1.021.542-2.172-4.591 1.94-3.401 2.355.68 1.027 3.621.593 5.04-.561 1.847-1.689 3.182-3.16 4.137-.427.243-.867.479-1.312.718-1.416.644-3.039 1.034-4.73 1.242-4.079.494-7.943-.24-11.498-2.032-1.618-.815-3.171-1.571-4.96-2.028-2.01-.513-4.077-.736-5.783-1.909-.423-.74-.81-1.488-1.398-1.951-.429-2.057 1.155-4.552-.038-6.571-.945-1.593-4.285-2.549-6.164-2.293-2.118.283-3.179 1.4-2.864 3.381.224 1.402 1.189 2.75 1.751 4.059.74 1.717.579 3.519.191 5.282-.072.032-.127.072-.147.12-2.378 6.412.105 14.61 7.769 17.941 15.09 6.559 24.919-.423 28.545-3.199.842-.646 4.366-3.794 5.092-4.739 4.576-5.108 8.116-11.913 4.957-17.604" fill="#de374b"/><path d="m54.713 23.849c-.157-.285-.343-.541-.547-.778.878 3.484-8.932 28.16-32.05 23.18-12.345-2.665-9.481-15.02-14.907-26.711-.584.571-.832 1.38-.66 2.454.224 1.402 1.189 2.75 1.751 4.059.74 1.717.579 3.519.191 5.282-.072.032-.127.072-.147.12-2.378 6.412.105 14.61 7.769 17.941 15.09 6.559 24.919-.423 28.545-3.199.842-.646 4.366-3.794 5.092-4.739 4.577-5.108 8.117-11.913 4.958-17.604" fill="#bf3049"/><g fill="#d9c089"><path d="m13.591 30.332c-3.514-2.832-7.445-11.478-10.802-11.478-2.294 6.102 9.502 17.1 15.718 15.906.739-3.02-3.174-3.03-4.916-4.428"/><path d="m22.917 52.3c-2.22.128-4.498 4.248-3.86 10.2.632 5.881 10.711-10.596 3.86-10.2"/></g><path d="m21.526 59.14c-.164.067-.6-1.875-.762-2.562-.531-.132-1.053-.279-1.594-.391-.319 1.902-.441 4.049-.213 6.419.375 3.921 3.698-.024 5.836-4.735-.297-.128-.61-.212-.912-.323-.699.65-1.465 1.217-2.355 1.592" fill="#de374b"/><path d="m20.367 43.845c-3.167-1.871-11.467.993-18.14 8.712-6.594 7.631 27.905-2.936 18.14-8.712" fill="#d9c089"/><path d="m8.631 51.36c-.445-.191.269-2.876.857-3.559-.281-.363-.556-.729-.85-1.089-2.318 1.584-4.671 3.586-6.868 6.123-3.638 4.209 4.137 3.363 11.388.679-.292-.583-.608-1.157-.939-1.728-1.215.093-2.417.081-3.588-.426" fill="#de374b"/></g></svg>

<?xml version="1.0" encoding="UTF-8" standalone="no"?>
<!-- Generator: Adobe Illustrator 16.0.0, SVG Export Plug-In . SVG Version: 6.00 Build 0)  -->

<svg
   xmlns:dc="http://purl.org/dc/elements/1.1/"
   xmlns:cc="http://creativecommons.org/ns#"
   xmlns:rdf="http://www.w3.org/1999/02/22-rdf-syntax-ns#"
   xmlns:svg="http://www.w3.org/2000/svg"
   xmlns="http://www.w3.org/2000/svg"
   xmlns:sodipodi="http://sodipodi.sourceforge.net/DTD/sodipodi-0.dtd"
   xmlns:inkscape="http://www.inkscape.org/namespaces/inkscape"
   version="1.1"
   id="Layer_1"
   x="0px"
   y="0px"
   width="64px"
   height="64px"
   viewBox="0 0 64 64"
   enable-background="new 0 0 64 64"
   xml:space="preserve"
   inkscape:version="0.48.5 r10040"
   sodipodi:docname="1F483.svg"
   inkscape:export-filename="D:\TESTINGEMOJI\SVGTEST\1F483.png"
   inkscape:export-xdpi="90"
   inkscape:export-ydpi="90"><metadata
   id="metadata4817"><rdf:RDF><cc:Work
       rdf:about=""><dc:format>image/svg+xml</dc:format><dc:type
         rdf:resource="http://purl.org/dc/dcmitype/StillImage" /><dc:title></dc:title></cc:Work></rdf:RDF></metadata><defs
   id="defs4815" /><sodipodi:namedview
   pagecolor="#ffffff"
   bordercolor="#666666"
   borderopacity="1"
   objecttolerance="10"
   gridtolerance="10"
   guidetolerance="10"
   inkscape:pageopacity="0"
   inkscape:pageshadow="2"
   inkscape:window-width="640"
   inkscape:window-height="480"
   id="namedview4813"
   showgrid="false"
   inkscape:zoom="3.6875"
   inkscape:cx="32"
   inkscape:cy="32"
   inkscape:window-x="290"
   inkscape:window-y="127"
   inkscape:window-maximized="0"
   inkscape:current-layer="Layer_1" />
<g
   id="g4785"
   transform="translate(4,0)">
	<path
   clip-rule="evenodd"
   d="m 40.403,6.041 c -1.229,-1.562 -6.45,-1.396 -5.286,1.881 0.164,0.481 2.252,-3.006 3.706,0.15 0.495,1.075 -0.343,3.943 -8.668,0.335 C 26.206,6.696 22.564,4.33 18.71,2.407 14.393,0.249 9.57,-1.311 4.949,0.795 3.12,1.625 1.037,3.524 0.57,5.467 c -2.685,11.132 4.855,11.006 7.077,11.136 1.58,0.094 3.144,-0.008 4.725,-0.08 2.886,-0.136 5.39,0.688 8.104,1.518 5.602,1.719 27.301,-2.649 19.927,-12 z"
   id="path4787"
   inkscape:connector-curvature="0"
   style="fill:#704c25;fill-rule:evenodd" />
	<path
   clip-rule="evenodd"
   d="M 40.403,6.041 C 40.046,5.586 39.35,5.285 38.574,5.157 38.731,5.289 38.907,5.401 39.041,5.554 45.617,13.205 28.619,16.056 24.616,15.823 18.442,15.462 3.369,14.233 3.8,5.251 3.925,2.612 5.493,0.923 7.644,-0.003 6.742,0.153 5.84,0.388 4.949,0.795 3.12,1.625 1.037,3.524 0.57,5.467 c -2.685,11.132 4.855,11.006 7.077,11.136 1.58,0.094 3.144,-0.008 4.725,-0.08 2.886,-0.136 5.39,0.688 8.104,1.518 5.602,1.719 27.301,-2.649 19.927,-12 z"
   id="path4789"
   inkscape:connector-curvature="0"
   style="fill:#5c3c1d;fill-rule:evenodd" />
	<path
   clip-rule="evenodd"
   d="m 23.738,32.378 c 0.455,-0.148 1.865,0.614 2.39,0.554 0.289,-0.034 2.455,0.369 0,-2.022 -5.812,-5.681 -8.807,-9.977 -9.626,-13.232 -0.931,-2.114 -4.45,-0.108 -5.637,-1.993 2.196,-2.344 3.541,-11.567 -0.8,-10.482 -9.347,-1.587 -5.39,7.392 -3.022,9.989 -12.44,3.502 3.78,20.665 11.467,19.19 0.736,-3.026 -3.173,-3.026 -4.913,-4.428 -3.542,-2.85 -3.193,-5.982 -5.056,-8.77 8.344,-0.231 9.742,6.826 15.197,11.194 z"
   id="path4791"
   inkscape:connector-curvature="0"
   style="fill:#d9c089;fill-rule:evenodd" />
	<path
   clip-rule="evenodd"
   d="m 22.671,42.628 c -2.062,0.758 -2.769,5.317 -0.063,10.774 2.672,5.394 6.418,-13.112 0.063,-10.774 z"
   id="path4793"
   inkscape:connector-curvature="0"
   style="fill:#d9c089;fill-rule:evenodd" />
	<path
   clip-rule="evenodd"
   d="m 54.713,23.849 c -1.49,-2.689 -5.122,-3.335 -8.084,-2.473 -4.255,1.241 -4.504,4.269 -0.7,6.279 1.021,0.542 -2.172,-4.591 1.94,-3.401 2.355,0.68 1.027,3.621 0.593,5.041 -0.561,1.847 -1.689,3.182 -3.16,4.137 -0.427,0.243 -0.867,0.479 -1.312,0.718 -1.416,0.644 -3.039,1.034 -4.73,1.242 -4.079,0.494 -7.943,-0.24 -11.498,-2.032 -1.618,-0.815 -3.171,-1.571 -4.96,-2.028 -2.013,-0.513 -4.077,-0.736 -5.783,-1.909 -0.423,-0.74 -0.81,-1.488 -1.398,-1.951 -0.429,-2.057 1.155,-4.552 -0.038,-6.571 -0.945,-1.593 -4.285,-2.549 -6.164,-2.293 -2.118,0.283 -3.179,1.4 -2.864,3.381 0.224,1.402 1.189,2.75 1.751,4.059 0.74,1.717 0.579,3.519 0.191,5.282 -0.072,0.032 -0.127,0.072 -0.147,0.12 -2.378,6.412 0.105,14.61 7.769,17.941 15.089,6.559 24.919,-0.423 28.545,-3.199 0.842,-0.646 4.366,-3.794 5.092,-4.739 4.576,-5.108 8.116,-11.913 4.957,-17.604 z"
   id="path4795"
   inkscape:connector-curvature="0"
   style="fill:#de374b;fill-rule:evenodd" />
	<path
   clip-rule="evenodd"
   d="M 54.713,23.849 C 54.556,23.564 54.37,23.308 54.166,23.071 55.044,26.555 45.234,51.232 22.121,46.246 9.776,43.581 12.64,31.226 7.214,19.535 c -0.584,0.571 -0.832,1.38 -0.66,2.454 0.224,1.402 1.189,2.75 1.751,4.059 0.74,1.717 0.579,3.519 0.191,5.282 -0.072,0.032 -0.127,0.072 -0.147,0.12 -2.378,6.412 0.105,14.61 7.769,17.941 15.089,6.559 24.919,-0.423 28.545,-3.199 0.842,-0.646 4.366,-3.794 5.092,-4.739 4.577,-5.108 8.117,-11.913 4.958,-17.604 z"
   id="path4797"
   inkscape:connector-curvature="0"
   style="fill:#bf3049;fill-rule:evenodd" />
	<path
   clip-rule="evenodd"
   d="M 13.591,30.332 C 10.077,27.5 6.146,18.854 2.789,18.854 c -2.294,6.102 9.502,17.1 15.718,15.906 0.739,-3.024 -3.174,-3.026 -4.916,-4.428 z"
   id="path4799"
   inkscape:connector-curvature="0"
   style="fill:#d9c089;fill-rule:evenodd" />
	<g
   id="g4801">
		<path
   clip-rule="evenodd"
   d="m 22.917,52.298 c -2.22,0.128 -4.498,4.248 -3.86,10.2 0.632,5.881 10.711,-10.596 3.86,-10.2 z"
   id="path4803"
   inkscape:connector-curvature="0"
   style="fill:#d9c089;fill-rule:evenodd" />
		<path
   clip-rule="evenodd"
   d="m 21.526,59.14 c -0.164,0.067 -0.6,-1.875 -0.762,-2.562 -0.531,-0.132 -1.053,-0.279 -1.594,-0.391 -0.319,1.902 -0.441,4.049 -0.213,6.419 0.375,3.921 3.698,-0.024 5.836,-4.735 -0.297,-0.128 -0.61,-0.212 -0.912,-0.323 -0.699,0.65 -1.465,1.217 -2.355,1.592 z"
   id="path4805"
   inkscape:connector-curvature="0"
   style="fill:#de374b;fill-rule:evenodd" />
	</g>
	<g
   id="g4807">
		<path
   clip-rule="evenodd"
   d="M 20.367,43.845 C 17.2,41.974 8.9,44.838 2.226,52.557 -4.368,60.188 30.131,49.621 20.367,43.845 z"
   id="path4809"
   inkscape:connector-curvature="0"
   style="fill:#d9c089;fill-rule:evenodd" />
		<path
   clip-rule="evenodd"
   d="M 8.631,51.364 C 8.186,51.173 8.9,48.488 9.488,47.805 9.207,47.442 8.932,47.076 8.638,46.716 6.32,48.3 3.967,50.302 1.77,52.839 -1.868,57.048 5.907,56.202 13.158,53.518 12.866,52.935 12.55,52.361 12.219,51.79 11.004,51.883 9.802,51.871 8.631,51.364 z"
   id="path4811"
   inkscape:connector-curvature="0"
   style="fill:#de374b;fill-rule:evenodd" />
	</g>
</g>
</svg>
